X:7
T:Lo Sent-Jan
M:6/8
L:1/8
N:La Bourre 4th edition 1929, page 25
Z:Steve Mansfield www.lesession.co.uk April 2012
K:Dm
A c B G2 F | A3 A3 | A c B G2 F | A3 z2z |
D E F G2 A | F2 D F3 | A3 z2z | F G A F2 E | D3 z2z |]

